X:1
T:State Street, SM
T:Jonathan Call Woodman, 1844
T:State Street, SM
T:Public Domain
C:Jonathan Call Woodman, 1844
Z:Public Domain
%%score ( 1 2 ) ( 3 4 )
L:1/8
M:3/4
K:A
V:1 treble 
V:2 treble 
V:3 bass 
V:4 bass 
V:1
 [Ec]2 | [Ec][DB] [CA]2 [DF]2 | [CE]4 [EA]2 | [DG][CA] [EB]2 [Ec]2 | [EB]4 [EB]2 | %5
 [Ec][DB] [CA]2 [EB]2 | [EA][DF] [CE]2 [EA]2 | [DG][CA] [DB]2 (B,D) | [CA]4 |] %9
V:2
 x2 | x6 | x6 | x6 | x6 | x6 | x6 | x4 G2 | x4 |] %9
V:3
 [A,,A,]2 | [A,,A,][A,,E,] [A,,E,]2 [A,,A,]2 | [A,,A,]4 [C,A,]2 | [B,,E,][A,,E,] [E,G,]2 A,2 | %4
 [E,G,]4 [E,G,]2 | A,[E,G,] [F,A,]2 [E,G,]2 | [C,A,][D,A,] [A,,A,]2 [C,B,]2 | %7
 [B,,E,][A,,E,] [D,F,]2 E,2 | [A,,E,]4 |] %9
V:4
 x2 | x6 | x6 | x4 A,2 | x6 | A, x5 | x6 | x4 E,2 | x4 |] %9

